fs/bookmark_search_24_filled.svg

<svg viewBox="0 0 24 24" fill="none" xmlns="http://www.w3.org/2000/svg" height="1em" width="1em">
  <path d="M19.1069 9.16806C18.3713 9.69191 17.4714 10 16.4995 10C14.0142 10 11.9995 7.98528 11.9995 5.5C11.9995 3.01472 14.0142 1 16.4995 1C18.9848 1 20.9995 3.01472 20.9995 5.5C20.9995 6.47187 20.6914 7.37179 20.1676 8.1074L22.7798 10.7197C23.0727 11.0126 23.0727 11.4874 22.7798 11.7803C22.4869 12.0732 22.0121 12.0732 21.7192 11.7803L19.1069 9.16806ZM19.4995 5.5C19.4995 3.84315 18.1564 2.5 16.4995 2.5C14.8427 2.5 13.4995 3.84315 13.4995 5.5C13.4995 7.15685 14.8427 8.5 16.4995 8.5C18.1564 8.5 19.4995 7.15685 19.4995 5.5ZM19.0003 10.4757V21.2449C19.0003 21.8562 18.3085 22.2107 17.8123 21.8538L12.0011 17.6728L6.18997 21.8538C5.69383 22.2107 5.00195 21.8562 5.00195 21.2449V6.24902C5.00195 4.4541 6.45703 2.99902 8.25195 2.99902H11.5997C11.216 3.74933 10.9995 4.59939 10.9995 5.5C10.9995 8.53757 13.4619 11 16.4995 11C17.38 11 18.2121 10.7931 18.9499 10.4253L19.0003 10.4757Z" fill="#212121"/>
</svg>

<svg viewBox="0 0 24 24" fill="none" xmlns="http://www.w3.org/2000/svg" height="1em" width="1em">
  <path d="M19.107 9.168a4.5 4.5 0 1 1 1.06-1.06l2.613 2.612a.75.75 0 1 1-1.06 1.06l-2.613-2.612ZM19.5 5.5a3 3 0 1 0-6 0 3 3 0 0 0 6 0Zm-.5 4.976v10.769a.75.75 0 0 1-1.188.609l-5.81-4.181-5.812 4.18a.75.75 0 0 1-1.188-.608V6.249a3.25 3.25 0 0 1 3.25-3.25H11.6a5.5 5.5 0 0 0 7.35 7.426l.05.05Z" fill="#212121"/>
</svg>
